X: 1
T: College Hornpipe
R: hornpipe, reel
O: trad
N: H&C  p.136, Harding 6 (in C), Hunter 336, Skye p.173, Litten p.19, BSFC II-7
Z: 2006 John Chambers <jc:trillian.mit.edu>
S: handwritten MS of unknown origin
M: 4/4
L: 1/8
K: A
ag \
| "A"a2 A2 A2 ed | ce a2 a2 b^a | "Bm"b2 B2 B2 BA | "E7"GB e2 e2 fg |
| "A"ag fe "F#m"fe dc | "D"dc BA "E7"BA GF | "A"EA GB "E7"Ac Bd | "A"c2 A2 A2 :|
|: ed \
| "A"ce ae ce ae | "D"f2 d2 d2 fe | "B7"^df bf df bf | "E"g2 e2 "E7"e2 fg |
| "A"ag fe "F#m"fe dc | "D"dc BA "E7"BA GF | "A"EA GB "E7"Ac Bd | "A"c2 A2 A2 :|
